icons/save.svg

<svg xmlns="http://www.w3.org/2000/svg" x="0px" y="0px" width="100" height="100" viewBox="0 0 50 50">
<path d="M 12.8125 2 C 12.335938 2.089844 11.992188 2.511719 12 3 L 12 47 C 11.996094 47.359375 12.1875 47.691406 12.496094 47.871094 C 12.804688 48.054688 13.1875 48.054688 13.5 47.875 L 25 41.15625 L 36.5 47.875 C 36.8125 48.054688 37.195313 48.054688 37.503906 47.871094 C 37.8125 47.691406 38.003906 47.359375 38 47 L 38 3 C 38 2.449219 37.550781 2 37 2 L 13 2 C 12.96875 2 12.9375 2 12.90625 2 C 12.875 2 12.84375 2 12.8125 2 Z M 14 4 L 36 4 L 36 45.25 L 25.5 39.125 C 25.191406 38.945313 24.808594 38.945313 24.5 39.125 L 14 45.25 Z"></path>
</svg>

<svg xmlns="http://www.w3.org/2000/svg" xmlns:xlink="http://www.w3.org/1999/xlink" viewBox="0,0,256,256" width="50px" height="50px"><g fill="#707070" fill-rule="nonzero" stroke="none" stroke-width="1" stroke-linecap="butt" stroke-linejoin="miter" stroke-miterlimit="10" stroke-dasharray="" stroke-dashoffset="0" font-family="none" font-weight="none" font-size="none" text-anchor="none" style="mix-blend-mode: normal"><g transform="scale(5.12,5.12)"><path d="M12.8125,2c-0.47656,0.08984 -0.82031,0.51172 -0.8125,1v44c-0.00391,0.35938 0.1875,0.69141 0.49609,0.87109c0.30859,0.18359 0.69141,0.18359 1.00391,0.00391l11.5,-6.71875l11.5,6.71875c0.3125,0.17969 0.69531,0.17969 1.00391,-0.00391c0.30859,-0.17969 0.5,-0.51172 0.49609,-0.87109v-44c0,-0.55078 -0.44922,-1 -1,-1h-24c-0.03125,0 -0.0625,0 -0.09375,0c-0.03125,0 -0.0625,0 -0.09375,0zM14,4h22v41.25l-10.5,-6.125c-0.30859,-0.17969 -0.69141,-0.17969 -1,0l-10.5,6.125z"></path></g></g></svg>
